X:1
T:Beaming Bright
T:Beaming Bright
T:Joseph Lincoln Hall
T:Irvin H. Mack, 1900
T:Public Domain Courtesy of the Cyber Hymnal™
T:Public Domain Courtesy of the Cyber Hymnal™
C:Joseph Lincoln Hall
Z:Public Domain
Z:Courtesy of the Cyber Hymnal™
%%score ( 1 2 ) ( 3 4 )
L:1/8
Q:1/4=75
M:2/4
K:C
V:1 treble 
V:2 treble 
V:3 bass 
V:4 bass 
V:1
!p! [EG] | [EG]>[EA] [EG][EG] | [FG]>[FA] [FG][FG] | [EG][EA] [EB][Ec] | [Fc][FB] [FA][FG] | %5
w: 1.~The|sun’s a- sleep ’neath|west- ern hills, And|dark- ened fin- gers|of the night Are|
w: 2.~O|sweet- est car- ol|ev- er sung, We’d|love to hear the|an- gels sing; O|
w: 3.~O|Thou who dwell’st up-|on the throne, In|lof- ty state, by|an- gels blest; Look|
 [FG]>[FA] [FG][FG] | [EG]>[EA] [EG][Ge] | [Gd][GB] G[Gc] | [GB][^FA] !fermata!G2 || %9
w: cast up- on the|plains and rills, And|hide all nat- ure|from the light.|
w: Child who art from|Hea- ven come, Our|off- erings now to|Thee we bring.|
w: down up- on us|as we roam, With-|in a world by|sin op- prest.|
"^Refrain"!ff! [EG][Ee] [Ed]2 | [EG][Ee] [Ec]2 | [EG]>[EA] [EB][Ec] | [Fc][FB] [FB]2 | %13
w: ||||
w: Beam- ing bright,|comes the light|Of the hap- py|Christ- mas morn,|
w: ||||
 [FG][Ff] [Fd]2 | [FG][Ff] [Fd]2 | [FB]>[FB] [FA][FB] | ([^DA]2 [EG]2) | [EG][Ee] [Ec]2 | %18
w: |||||
w: An- gels’ strains|o’er the plains|Tell that Christ is|born. *|Beam- ing bright,|
w: |||||
 [EG][Ee] [Ec]G | A>B cd | [^Ge]3 [Ge] | [Fe]>[Fd] [Ff][Fd] | [Ed]>[Ec] [Ee][Ec] | %23
w: |||||
w: comes the light Of|hap- py Christ- mas|morn, And|an- gels’ strains o’er|eas- tern plains, They|
w: |||||
 [Fc]>[FB] [Fd][FB] | !fermata![Ec]3 |] %25
w: ||
w: tell that Christ is|born.|
w: ||
V:2
 x | x4 | x4 | x4 | x4 | x4 | x4 | x2 G x | x2 (G=F) || x4 | x4 | x4 | x4 | x4 | x4 | x4 | x4 | %17
 x4 | x3 G | A>B cd | x4 | x4 | x4 | x4 | x3 |] %25
V:3
!p! [C,C] | [C,C]>[C,C] [C,C][C,C] | [D,B,]>[D,B,] [D,B,][D,B,] | [E,C][E,C] [E,C][E,C] | %4
 [G,D][G,D] [G,D][G,B,] | [G,B,]>[G,B,] [G,B,][G,B,] | [G,C]>[G,C] [G,C][C,C] | %7
 [D,B,][D,B,] [D,B,][D,E] | [D,D][D,C] [G,B,]2 ||!ff! [C,C][C,C] [C,C]2 | [C,C][C,C] [C,C]2 | %11
 [C,C]>[C,C] [C,C][C,C] | [G,D][G,D] [G,D]2 | [G,B,][G,B,] [G,B,]2 | [G,B,][G,B,] [G,B,]2 | %15
 [G,,G,]>[G,,G,] [G,,G,][G,,G,] | (^F,2 G,2) | [C,C][C,C] [C,C]2 | [C,C][C,C] [C,C]G, | A,>B, CD | %20
 [E,B,]3 [E,B,] | [E,A,]>[E,A,] [F,A,][F,A,] | [G,C]>[G,C] [G,C][G,C] | [G,D]>[G,D] [G,B,][G,D] | %24
 !fermata![C,C]3 |] %25
V:4
 x | x4 | x4 | x4 | x4 | x4 | x4 | x4 | x4 || x4 | x4 | x4 | x4 | x4 | x4 | x4 | C,4 | x4 | x3 G, | %19
 A,>B, CD | x4 | x4 | x4 | x4 | x3 |] %25

